X:1
T:Title
%%score { ( 1 3 ) | ( 2 4 ) }
L:1/8
M:4/4
K:Ab
V:1 treble nm="Grand Piano"
V:3 treble 
V:2 bass 
V:4 bass 
V:1
 z4 z2[Q:1/4=100] E>E | [CA]2 [CE]>[CE] B2 EE | c4 z4 | [Gd]3 [Ac] [GB]2 [_G=A]2 | %4
[M:7/8] [GB]-[GB]-[GB]- [GB]3 z |[M:1/8] E | %6
[M:4/4][K:bass] [E,A,C]3 [E,B,D][K:treble] [A,CE]2 [A,CE]2 | [A,EA]3 [A,EG] [A,DF]2 [CA][Ec] | %8
 [_Ge]3 [Fd] [Ec]>[Fd] [Ec]>[DB] | [CA]6 z2 | G2 G>A B2 E2 | [CA]2 [CA]>[DB] [Ec]2 z2 | %12
 F2 F>F [Fd]2 [Fc]2 |[M:7/8] B-B-B- B3 z |[M:1/8] E |[M:4/4] [Ec]2 [Ec]>[DB] [CA]2 z [A,A] | %16
 [Gd]2 [Gd]>[Gc] [GB]2 z2 | [Ae]2 [EA][Fd] c>d cB |[M:3/4] [A,CA]4 z2 |[M:1/4] E>E | %20
[M:4/4] [CA]2 [CE]>[CE] B2 EE | c4 z4 | [Gd]3 [Ac] [GB]2 [_G=A]2 |[M:7/8] [GB]-[GB]-[GB]- [GB]3 z | %24
[M:1/8] E |[M:4/4][K:bass] [E,A,C]3 [E,B,D][K:treble] [A,CE]2 [A,CE]2 | %26
 [A,EA]3 [A,EG] [A,DF]2 [CA][Ec] | [_Ge]3 [Fd] [Ec]>[Fd] [Ec]>[DB] |[M:8/4] [CA]8 z8 |] %29
V:2
 z4 z2 E,>[E,D] | [A,,E,]2 [A,,A,]>[A,,A,] [E,G,D]2 [E,G,D][E,G,D] | .C2 z2 z4 | %3
 [E,B,]3 [E,E] [E,E]2 [E,E]2 |[M:7/8] [E,E]-[E,E]-[E,E]- [E,E]3 z |[M:1/8] E, | %6
[M:4/4] A,,3 A,, A,,2 A,,2 | C,3 C, D,2 [A,,A,]2 | [C,A,]3 [D,A,] [E,A,]>[E,G,] [E,A,]>[E,G,] | %9
 [A,,A,]6 z2 | [E,B,D]2 [E,B,D]>[E,A,C] [E,G,D]2 [E,B,D]2 | [A,,A,]2 [A,,A,]>[A,,A,] [A,,A,]2 z2 | %12
 [D,A,D]2 [D,A,D]>[D,A,D] [B,,B,]2 [B,,A,]2 |[M:7/8] [E,G,E]-[E,G,E]-[E,G,E]- [E,G,E]3 z | %14
[M:1/8] [E,G,] |[M:4/4] [A,,A,]2 [A,,A,]>[A,,A,] [A,,A,]2 z2 | [E,B,]2 [E,B,]>[E,E] [E,E]2 z2 | %17
 z4 [A,E]2 z2 |[M:3/4] A,,4 z2 |[M:1/4] E,>[E,D] | %20
[M:4/4] [A,,E,]2 [A,,A,]>[A,,A,] [E,G,D]2 [E,G,D][E,G,D] | .C2 z2 z4 | %22
 [E,B,]3 [E,E] [E,E]2 [E,E]2 |[M:7/8] [E,E]-[E,E]-[E,E]- [E,E]3 z |[M:1/8] E, | %25
[M:4/4] A,,3 A,, A,,2 A,,2 | C,3 C, D,2 [A,,A,]2 | [C,A,]3 [D,A,] [E,A,]>[E,G,] [E,A,]>[E,G,] | %28
[M:8/4] [A,,A,]8 z8 |] %29
V:3
 x8 | x8 | z EA[DGB] [CA]2 [CE]>[CE] | x8 |[M:7/8] x7 |[M:1/8] x |[M:4/4][K:bass] x4[K:treble] x4 | %7
 x8 | x8 | x8 | x8 | x8 | x8 |[M:7/8] x7 |[M:1/8] x |[M:4/4] x8 | x8 | x8 |[M:3/4] x6 |[M:1/4] x2 | %20
[M:4/4] x8 | z EA[DGB] [CA]2 [CE]>[CE] | x8 |[M:7/8] x7 |[M:1/8] x | %25
[M:4/4][K:bass] x4[K:treble] x4 | x8 | x8 |[M:8/4] x16 |] %29
V:4
 x8 | x8 | A,-[A,-C][A,E]E, A,2 A,>A, | x8 |[M:7/8] x7 |[M:1/8] x |[M:4/4] x8 | x8 | x8 | x8 | x8 | %11
 x8 | x8 |[M:7/8] x7 |[M:1/8] x |[M:4/4] x8 | x8 | [A,C]2 [A,C][D,A,] E,->[E,-G,F] [E,A,E][E,G,D] | %18
[M:3/4] x6 |[M:1/4] x2 |[M:4/4] x8 | A,-[A,-C][A,E]E, A,2 A,>A, | x8 |[M:7/8] x7 |[M:1/8] x | %25
[M:4/4] x8 | x8 | x8 |[M:8/4] x16 |] %29

